X: 10601
Q: "Very slow."
U: p=!crescendo(!
U: P=!crescendo)!
M: 6/8
L: 1/16
K: Gm
(GA) !segno!|:\
~B3cB2 {B}!p!A4(G^F) | GD3B2 =F2D2B,2 |"^cres."\
~B3cB2 A4G^F | GD3B2 (=F2D2) (B,C) |\
!pp!(D3^CD2) {A,}B,4A,2 | G,2G2^F2 {A}"_>"HG4 :|
"_>"[B6D6] "_>"[c6E6] | (Td3^cd2) "_>"H[g4B4] (ab) |\
{e}"^dim."d2c2B2 {d}c2B2A2 | (G^F)pGABPc {^c}Hd4 D2 !segno!|]


